app/images/dist/diamond-icon.svg

<svg width="36" height="34" viewBox="0 0 36 34" fill="none" xmlns="http://www.w3.org/2000/svg">
<path d="M2.1659 12H33.8325M14.6659 2L11.3326 12L17.9992 31.1667L24.6658 12L21.3325 2M19.0235 30.7708L33.9545 12.8536C34.2077 12.5499 34.3342 12.3981 34.3825 12.2286C34.4252 12.0792 34.4252 11.9208 34.3825 11.7714C34.3342 11.6019 34.2077 11.4501 33.9545 11.1464L26.7323 2.47975C26.5853 2.3034 26.512 2.21523 26.4218 2.15185C26.342 2.09568 26.253 2.05397 26.1588 2.02862C26.0523 2 25.9377 2 25.708 2H10.2904C10.0608 2 9.94606 2 9.8397 2.02862C9.74546 2.05397 9.65641 2.09568 9.5766 2.15185C9.48653 2.21523 9.41305 2.3034 9.2661 2.47975L2.04388 11.1464C1.79083 11.4501 1.6643 11.6019 1.61595 11.7714C1.57333 11.9208 1.57333 12.0792 1.61595 12.2286C1.6643 12.3981 1.79083 12.5499 2.04388 12.8536L16.975 30.7708C17.3267 31.193 17.5025 31.404 17.7132 31.481C17.8978 31.5485 18.1005 31.5485 18.2853 31.481C18.4958 31.404 18.6718 31.193 19.0235 30.7708Z" stroke="white" stroke-width="3" stroke-linecap="round" stroke-linejoin="round"/>
</svg>

<svg width="36" height="34" fill="none" xmlns="http://www.w3.org/2000/svg"><path d="M2.166 12h31.667M14.666 2l-3.333 10 6.666 19.167L24.666 12 21.332 2m-2.309 28.77 14.932-17.916c.253-.304.38-.456.428-.625a.832.832 0 0 0 0-.458c-.049-.17-.175-.32-.428-.625L26.732 2.48c-.147-.177-.22-.265-.31-.328a.833.833 0 0 0-.263-.123C26.052 2 25.938 2 25.708 2H10.29c-.23 0-.344 0-.45.029a.833.833 0 0 0-.263.123c-.09.063-.164.151-.31.328l-7.223 8.666c-.253.304-.38.456-.428.625a.833.833 0 0 0 0 .458c.048.17.175.32.428.625L16.975 30.77c.352.422.527.633.738.71a.833.833 0 0 0 .572 0c.21-.077.387-.288.738-.71Z" stroke="#fff" stroke-width="3" stroke-linecap="round" stroke-linejoin="round"/></svg>
